X:1
T:Title
%%score { ( 1 3 ) | ( 2 4 ) }
L:1/8
Q:1/4=94
M:4/4
K:D
V:1 treble nm="Grand Piano"
V:3 treble 
V:2 bass 
V:4 bass 
V:1
 (3FFF F>E D4 | (3[FA][FA][FA] [FA]>[A,EG] [A,DF]3 [DFA] |[M:2/4] [DGB]>[DAc] [DBd]>[DGB] | %3
w: E.~S.~Howard * * * * *|||
 [DFA]>[DFA] [A,DF]>[F,D] |[M:4/4] [DF]2 [CE]2 [CE]3 [CE] | F>F F>E D4 | %6
w: |||
[M:7/8] [FA]/[FA][FA]<[FA][EG]/ [DF]3 |[M:1/8] [FA] |[M:4/4] [GB]>[Ac] [Bd]>[GB] [FA]>[FA] F>E | %9
w: |||
 D>D E>E D4 | (3ccc c>d e2 c>B | %11
w: ||
[M:35/32] [FA]>[FA][FB]>[FB][FA]>[Fd][Fd]-(3:2:4[Fd]3/2-[Fd]/4[FA]3/4-[FA]/8 | %12
w: |
[M:4/4] (5:4:5[GB]2 [Ac]/ [Bd]/-[Bd]3/2[GB]/ z4 | (5:4:5D2 D/ F/-F3/2F/ [CE]4 | %14
w: ||
 z4 e2- e/4 z/4 z/ z | %15
w: |
[M:35/32] [FA]3/2[FA]3/4 z z/4 (3:2:4[FB]3/4-[FB]/8[FA]3/2-[FA]/4-[FA-]/4[F-Ad-]/4[Fd]/4 d2- [F-A-d]/4[FA]/ | %16
w: |
[M:4/4] [GB]>[Ac] [Bd]>[GB] [FA]>[FA] F>E | D>D E>E D4 |] %18
w: ||
V:2
 (3[D,A,D][D,A,D][D,A,D] [D,A,D]>[D,G,A,] [D,F,A,]4 | (3[D,D][D,D][D,D] [D,D]>D, D,3 D, | %2
[M:2/4] G,>G, G,>G, | D,>D, D,>D, |[M:4/4] [A,,A,]2 [A,,A,]2 [A,,A,]3 [A,,A,] | %5
 [D,A,D]>[D,A,D] [D,A,D]>[D,G,A,] [D,F,A,]4 |[M:7/8] [D,D]/[D,D][D,D]<[D,D][D,A,]/ [D,A,]3 | %7
[M:1/8] [D,D] |[M:4/4] [G,D]>[G,D] [G,D]>[G,D] [D,D]>[D,D] [D,A,D]>[D,G,D] | %9
 [A,,F,A,]>[A,,F,A,] [A,,G,A,]>[A,,G,A,] [D,F,A,]4 | %10
 (3[A,EG][A,EG][A,EG] [A,EG]>[A,CF] [A,CG]2 [A,EG]>[A,EG] | %11
[M:35/32][K:bass] [D,D]>[D,D][D,D]>[D,D][D,D]>[D,A,][D,A,]-(3:2:4[D,A,]3/2-[D,A,]/4[D,D]3/4-[D,D]/8 | %12
[M:4/4] (5:4:5[G,D]2 [G,D]/ [G,D]/-[G,D]3/2[G,D]/ z4 | %13
 (5:4:5[D,F,A,]2 [D,F,A,]/ [D,A,D]/-[D,A,D]3/2[D,A,D]/ [A,,A,]4 | %14
 [EG]3/4 z/4 z z2 [A,CG]2- [A,CG]/4 z/4 z/ z | %15
[M:35/32][K:bass] z2 [D,D]3/2-[D,D]/4 z2 z/4 A,2- A,/4 z/ | %16
[M:4/4] [G,D]>[G,D] [G,D]>[G,D] [D,D]>[D,D] [D,A,D]>[D,G,D] | %17
 [A,,F,A,]>[A,,F,A,] [A,,G,A,]>[A,,G,A,] [D,F,A,]4 |] %18
V:3
 x8 | x8 |[M:2/4] x4 | x4 |[M:4/4] x8 | x8 |[M:7/8] x7 |[M:1/8] x |[M:4/4] x8 | x8 | x8 | %11
[M:35/32] x35/4 |[M:4/4] z4 (5:4:5[FA]2 [FA]/ F/-F3/2E/ | x8 | %14
 (7:8:6c/c3/4c/ c/4-cd/ z2 (3:2:2c2 B |[M:35/32] z2 [FB]3/2-[FB]/4 z2 z/4 F2 z3/4 |[M:4/4] x8 | %17
 x8 |] %18
V:4
 x8 | x8 |[M:2/4] x4 | x4 |[M:4/4] x8 | x8 |[M:7/8] x7 |[M:1/8] x |[M:4/4] x8 | x8 | x8 | %11
[M:35/32][K:bass] x35/4 |[M:4/4] z4 (5:4:5[D,D]2 [D,D]/ [D,A,D]/-[D,A,D]3/2[D,G,D]/ | x8 | %14
 (7:8:6A,/[A,EG]3/4[A,EG]/ [A,EG]/4-[A,EG][A,CF]/ z2 (3:2:2[A,EG]2 [A,EG] | %15
[M:35/32][K:bass] [D,D]3/2[D,D]3/4 z z/4 (3:2:4[D,D]3/4-[D,D]/8[D,D]3/2-[D,D]/4-[D,D-]/4[D,-A,-D]/4[D,A,]/4 D,2 [D,D]3/4 | %16
[M:4/4] x8 | x8 |] %18

